_uploads/ornament-o-solid.svg

<svg width="40" height="40" fill="none" xmlns="http://www.w3.org/2000/svg"><path d="M20 40c11.046 0 20-8.954 20-20S31.046 0 20 0 0 8.954 0 20s8.954 20 20 20z" fill="#000"/><path d="M20 10c5.66 0 9.73 3.72 9.73 10 0 6.28-4.07 10-9.73 10s-9.7-3.72-9.7-10c0-6.28 4.05-10 9.7-10zm0 18.05c4.36 0 7.25-3 7.25-8S24.37 12 20 12s-7.25 3-7.25 8 2.89 8.05 7.25 8.05z" fill="#fff"/></svg>

<svg width="40" height="40" viewBox="0 0 40 40" fill="none" xmlns="http://www.w3.org/2000/svg">
<path d="M20 40C31.0457 40 40 31.0457 40 20C40 8.9543 31.0457 0 20 0C8.9543 0 0 8.9543 0 20C0 31.0457 8.9543 40 20 40Z" fill="black"/>
<path d="M20 10C25.66 10 29.73 13.72 29.73 20C29.73 26.28 25.66 30 20 30C14.34 30 10.3 26.28 10.3 20C10.3 13.72 14.35 10 20 10ZM20 28.05C24.36 28.05 27.25 25.05 27.25 20.05C27.25 15.05 24.37 12 20 12C15.63 12 12.75 15 12.75 20C12.75 25 15.64 28.05 20 28.05Z" fill="white"/>
</svg>
